X:627
T:Oliver Jack
C:Joe Buchanan's Scottish Tome - Page 186.2
I:186 2
Z:Carl Allison
R:Reel
L:1/8
M:4/4
K:G
Bc | d2 dc B2 ge | d2 (dc) vBGBc | d2 dc B2 ge | d2 d2 :|
Bd | c2 cA B2 BG | A2 AG FGAB | c2 cA BGGB | G2 d2 G3 :|

